X: 1
T: the Virginia Reel
N: Named for the town of Virginia, County Clare, Ireland
Z: 2016 John Chambers <jc:trillian.mit.edu>
S: Portland Collection v.1 p.205
M: C|
L: 1/8
R: Reel
K: D
|:\
"G"DBBA ~B3A | BAdB "(A7)"AFEF | "D"DF~F2 A3B | AFBF "D7"AFEF || "G"DBBA ~B3A | BAdB "(A7)"ABde |
"D"f3{gf}e defe | "G"dBAF "Em"BE~E2 :: "D"defe ~d3A | "D"BAFA DAFA | "D"defe defg |
"(Em)"afbf "A"afeg | "Bm"fedf efdB || "D"AF~F2 "A7"ABde | "G"f3{gf}e defe | "D"dBAF "Em"BE~E2 :|]
